build/img/icon-money.svg

<svg width="30" height="18" viewBox="0 0 30 18" fill="none" xmlns="http://www.w3.org/2000/svg">
<path fill-rule="evenodd" clip-rule="evenodd" d="M28 1H2C1.44772 1 1 1.44772 1 2V16C1 16.5523 1.44772 17 2 17H28C28.5523 17 29 16.5523 29 16V2C29 1.44772 28.5523 1 28 1ZM2 0C0.895431 0 0 0.89543 0 2V16C0 17.1046 0.89543 18 2 18H28C29.1046 18 30 17.1046 30 16V2C30 0.895431 29.1046 0 28 0H2Z" fill="#151515"/>
<path fill-rule="evenodd" clip-rule="evenodd" d="M0 4.91665C0.269258 4.97131 0.547945 5 0.833333 5C3.13452 5 5 3.13452 5 0.833333C5 0.547945 4.97131 0.269258 4.91665 0H3.88921C3.96144 0.265524 4 0.544926 4 0.833333C4 2.58224 2.58224 4 0.833333 4C0.544926 4 0.265524 3.96144 0 3.88921V4.91665Z" fill="#151515"/>
<path fill-rule="evenodd" clip-rule="evenodd" d="M30 4.91665C29.7307 4.97131 29.4521 5 29.1667 5C26.8655 5 25 3.13452 25 0.833333C25 0.547945 25.0287 0.269258 25.0833 0H26.1108C26.0386 0.265524 26 0.544926 26 0.833333C26 2.58224 27.4178 4 29.1667 4C29.4551 4 29.7345 3.96144 30 3.88921V4.91665Z" fill="#151515"/>
<path fill-rule="evenodd" clip-rule="evenodd" d="M30 13.0833C29.7307 13.0287 29.4521 13 29.1667 13C26.8655 13 25 14.8655 25 17.1667C25 17.452 25.0287 17.7307 25.0833 18H26.1108C26.0386 17.7345 26 17.4551 26 17.1667C26 15.4178 27.4178 14 29.1667 14C29.4551 14 29.7345 14.0386 30 14.1108V13.0833Z" fill="#151515"/>
<path fill-rule="evenodd" clip-rule="evenodd" d="M0 13.0833C0.269258 13.0287 0.547945 13 0.833333 13C3.13452 13 5 14.8655 5 17.1667C5 17.452 4.97131 17.7307 4.91665 18H3.88921C3.96144 17.7345 4 17.4551 4 17.1667C4 15.4178 2.58224 14 0.833333 14C0.544926 14 0.265524 14.0386 0 14.1108V13.0833Z" fill="#151515"/>
<path d="M12 3.99999H13V14H12V3.99999Z" fill="#151515"/>
<path fill-rule="evenodd" clip-rule="evenodd" d="M16.5 4.99999H12.5V3.99999H16.5C16.9133 3.99999 17.5222 4.11988 18.0422 4.49423C18.5876 4.88692 19 5.53703 19 6.49999V7.49999C19 7.91334 18.8801 8.52222 18.5058 9.04214C18.1131 9.58756 17.463 9.99999 16.5 9.99999H12.5V8.99999H16.5C17.137 8.99999 17.4869 8.74576 17.6942 8.45784C17.9199 8.14443 18 7.75331 18 7.49999V6.49999C18 5.86295 17.7458 5.51306 17.4578 5.30576C17.1444 5.0801 16.7533 4.99999 16.5 4.99999Z" fill="#151515"/>
<path d="M11 11H17V12H11V11Z" fill="#151515"/>
</svg>

<svg width="30" height="18" fill="none" xmlns="http://www.w3.org/2000/svg"><path fill-rule="evenodd" clip-rule="evenodd" d="M28 1H2a1 1 0 00-1 1v14a1 1 0 001 1h26a1 1 0 001-1V2a1 1 0 00-1-1zM2 0a2 2 0 00-2 2v14a2 2 0 002 2h26a2 2 0 002-2V2a2 2 0 00-2-2H2z" fill="#151515"/><path fill-rule="evenodd" clip-rule="evenodd" d="M0 4.917A4.167 4.167 0 004.917 0H3.889A3.17 3.17 0 010 3.89v1.027zm30 0A4.167 4.167 0 0125.083 0h1.028A3.167 3.167 0 0030 3.89v1.027zm0 8.166A4.167 4.167 0 0025.083 18h1.028A3.167 3.167 0 0130 14.11v-1.027zm-30 0A4.167 4.167 0 014.917 18H3.889A3.17 3.17 0 000 14.11v-1.027z" fill="#151515"/><path d="M12 4h1v10h-1V4z" fill="#151515"/><path fill-rule="evenodd" clip-rule="evenodd" d="M16.5 5h-4V4h4c.413 0 1.022.12 1.542.494.546.393.958 1.043.958 2.006v1c0 .413-.12 1.022-.494 1.542-.393.546-1.043.958-2.006.958h-4V9h4c.637 0 .987-.254 1.194-.542.226-.314.306-.705.306-.958v-1c0-.637-.254-.987-.542-1.194A1.736 1.736 0 0016.5 5z" fill="#151515"/><path d="M11 11h6v1h-6v-1z" fill="#151515"/></svg>
